X: 16327
T: Grumbling Old Man And Woman, The
R: reel
M: 4/4
K: Edorian
GEBE GEBE|FDAD FDAD|GEBE GEBE|FEDF E2EF|
GEBE GEBE|FDAD FDAD|GEBE GEBE|FEDF E2z2||
B2BA ^GABc|d2dc BA^GA|BcBA ^GABA|Bee^d e2Bc|
=dcBA ^GABc|d2dB AFDF|=G2FG EDBc|dBAF E2EF||

